src/icons/infrastructure.svg

<svg viewBox="0 0 24 24" fill="none" xmlns="http://www.w3.org/2000/svg">
<rect opacity="0.01" x="4" y="4" width="16" height="16" fill="black"/>
<path fill-rule="evenodd" clip-rule="evenodd" d="M12.4873 8.34314C12.4842 8.40943 12.5142 8.47291 12.5674 8.5126L18.8539 13.2046C19.3873 13.6027 19.3901 14.4011 18.8596 14.803L12.6026 19.5434C12.246 19.8135 11.7534 19.814 11.3964 19.5446L5.07064 14.7717C4.55121 14.3797 4.53852 13.604 5.04486 13.1953L5.70856 12.6595C5.78082 12.6012 5.88372 12.6003 5.95701 12.6573L6.16394 12.8184C6.32083 12.9404 6.31774 13.1786 6.15773 13.2966L5.56546 13.7333C5.4579 13.8126 5.45689 13.973 5.56344 14.0537L11.1813 18.3065C11.313 18.4062 11.502 18.3123 11.502 18.147V15.6324L5.06561 10.8001C4.53265 10.4 4.53285 9.60027 5.06602 9.20039L11.41 4.44243C11.7607 4.17936 12.242 4.17546 12.5969 4.43282L19.0047 9.07844C19.5704 9.48856 19.5518 10.3376 18.9687 10.7226L18.0639 11.32L17.5821 10.8486C17.4885 10.7571 17.5067 10.6017 17.6189 10.5343L18.3655 10.0853C18.4896 10.0106 18.4957 9.83294 18.377 9.74996L12.9056 5.92513C12.7765 5.83484 12.5985 5.92245 12.5912 6.07987L12.4873 8.34314ZM11.7204 5.8666C11.7204 5.70182 11.5323 5.60774 11.4005 5.70655L5.97237 9.77465C5.86588 9.85446 5.86558 10.0141 5.97175 10.0943L11.7254 14.4409C11.8907 14.5658 12.116 14.5758 12.2917 14.466L14.9344 12.8152C15.0071 12.7698 15.1006 12.7758 15.167 12.83L15.6189 13.1997C15.7247 13.2863 15.7144 13.4512 15.5986 13.5239L12.3823 15.5447C12.324 15.5813 12.2887 15.6453 12.2887 15.7141V18.1821C12.2887 18.3481 12.4793 18.4419 12.6108 18.3404L18.0306 14.1592C18.1347 14.0788 18.1343 13.9216 18.0298 13.8418L12.1774 9.3734C12.1048 9.318 12.0039 9.31876 11.9322 9.37524L9.49398 11.2957C9.41731 11.3561 9.30823 11.3523 9.23591 11.2868L8.8544 10.941C8.76267 10.8578 8.76776 10.7121 8.86507 10.6356L11.6441 8.44956C11.6923 8.41164 11.7204 8.3537 11.7204 8.29236V5.8666Z" fill="black"/>
</svg>

<svg viewBox="0 0 24 24" fill="currentColor" xmlns="http://www.w3.org/2000/svg"><path opacity=".01" fill="#000" d="M4 4h16v16H4z"/><path fill-rule="evenodd" clip-rule="evenodd" d="M12.487 8.343a.2.2 0 0 0 .08.17l6.287 4.692a1 1 0 0 1 .006 1.598l-6.257 4.74a1 1 0 0 1-1.207.002l-6.325-4.773a1 1 0 0 1-.026-1.577l.664-.536a.2.2 0 0 1 .248-.002l.207.161a.3.3 0 0 1-.006.479l-.593.436a.2.2 0 0 0-.002.32l5.618 4.253a.2.2 0 0 0 .321-.159v-2.515L5.066 10.8a1 1 0 0 1 0-1.6l6.344-4.758a1 1 0 0 1 1.187-.01l6.408 4.646a1 1 0 0 1-.036 1.645l-.905.597-.482-.471a.2.2 0 0 1 .037-.315l.747-.449a.2.2 0 0 0 .011-.335l-5.471-3.825a.2.2 0 0 0-.315.155l-.104 2.263zm-.767-2.476a.2.2 0 0 0-.32-.16L5.972 9.775a.2.2 0 0 0 0 .32l5.753 4.346a.5.5 0 0 0 .567.025l2.642-1.65a.2.2 0 0 1 .233.014l.452.37a.2.2 0 0 1-.02.324l-3.217 2.02a.2.2 0 0 0-.093.17v2.468a.2.2 0 0 0 .322.158l5.42-4.18a.2.2 0 0 0-.001-.318l-5.853-4.469a.2.2 0 0 0-.245.002l-2.438 1.92a.2.2 0 0 1-.258-.008l-.382-.346a.2.2 0 0 1 .011-.305l2.78-2.186a.2.2 0 0 0 .075-.158V5.867z" fill="#000"/></svg>
